__todo__/tauri.svg

<svg height="289" preserveAspectRatio="xMidYMid" viewBox="0 0 256 289" width="256" xmlns="http://www.w3.org/2000/svg"><path d="m178.496537 104.930808c0 15.153981-12.284729 27.43871-27.43871 27.43871s-27.43871-12.284729-27.43871-27.43871c0-15.1539809 12.284729-27.4387098 27.43871-27.4387098s27.43871 12.2847289 27.43871 27.4387098z" fill="#ffc131"/><circle cx="104.910905" cy="183.505296" fill="#24c8db" r="27.43871" transform="matrix(-1 0 -0 -1 209.82181 367.010592)"/><path d="m207.930789 192.859402c-11.027547 7.129066-23.29703 12.121476-36.169208 14.717126 3.730471-10.635699 4.967932-21.9862 3.61692-33.175895 29.95342-10.471196 49.821229-38.963778 49.292188-70.690319-.52904-31.7265408-21.335767-59.5408744-51.621652-69.0075787-30.285884-9.4667044-63.229257 1.5465249-81.7327652 27.3239081-13.9610641 1.5708192-27.5468018 5.5368421-40.1602937 11.7238125 13.7039641-44.2149351 54.8006899-74.19557919 101.0884469-73.74545575 46.287758.45012344 86.793676 31.22430915 99.635197 75.69738475 12.841521 44.4730751-5.025537 92.1023541-43.948833 117.1570171zm-155.5275968-100.0265705 25.6926102 3.1180352c.5827794-4.9615993 1.669303-9.8509554 3.2427567-14.5924049-10.162681 2.3626077-19.915424 6.2300747-28.9353669 11.4743697z" fill="#ffc131"/><path d="m47.9132215 95.5767025c11.0938398-7.201814 23.4510621-12.2378053 36.4186514-14.8418477-3.9225754 10.6340453-5.3312538 22.0315342-4.1158065 33.3006162-29.8473598 10.618426-49.5486118 39.147926-48.9061646 70.821307.6424471 31.673382 21.4843751 59.380524 51.737766 68.779896 30.2533912 9.399372 63.1268862-1.619021 81.6047922-27.351935 13.953502-1.53155 27.538904-5.455284 40.160294-11.599091-13.737752 44.166888-54.813716 74.098257-101.065572 73.644795-46.2518555-.453463-86.7330737-31.184436-99.60222534-75.612183-12.86915165-44.427747 4.91953395-92.037456 43.76826484-117.1415575zm155.5275975 100.0265705-.498886.249442z" fill="#24c8db"/></svg>

<?xml version="1.0" encoding="UTF-8"?>
<svg width="256px" height="289px" viewBox="0 0 256 289" version="1.1" xmlns="http://www.w3.org/2000/svg" xmlns:xlink="http://www.w3.org/1999/xlink" preserveAspectRatio="xMidYMid">
    <title>tauri</title>
    <g>
        <path d="M178.496537,104.930808 C178.496537,120.084789 166.211808,132.369518 151.057827,132.369518 C135.903846,132.369518 123.619117,120.084789 123.619117,104.930808 C123.619117,89.7768271 135.903846,77.4920982 151.057827,77.4920982 C166.211808,77.4920982 178.496537,89.7768271 178.496537,104.930808 L178.496537,104.930808 Z" fill="#FFC131"></path>
        <circle fill="#24C8DB" transform="translate(104.910905, 183.505296) rotate(180.000000) translate(-104.910905, -183.505296) " cx="104.910905" cy="183.505296" r="27.43871"></circle>
        <path d="M207.930789,192.859402 C196.903242,199.988468 184.633759,204.980878 171.761581,207.576528 C175.492052,196.940829 176.729513,185.590328 175.378501,174.400633 C205.331921,163.929437 225.19973,135.436855 224.670689,103.710314 C224.141649,71.9837732 203.334922,44.1694396 173.049037,34.7027353 C142.763153,25.2360309 109.81978,36.2492602 91.3162718,62.0266434 C77.3552077,63.5974626 63.76947,67.5634855 51.1559781,73.7504559 C64.8599422,29.5355208 105.956668,-0.445123293 152.244425,0.00500014704 C198.532183,0.455123587 239.038101,31.2293093 251.879622,75.7023849 C264.721143,120.17546 246.854085,167.804739 207.930789,192.859402 L207.930789,192.859402 Z M52.4031922,92.8328315 L78.0958024,95.9508667 C78.6785818,90.9892674 79.7651054,86.0999113 81.3385591,81.3584618 C71.1758781,83.7210695 61.4231351,87.5885365 52.4031922,92.8328315 L52.4031922,92.8328315 Z" fill="#FFC131"></path>
        <path d="M47.9132215,95.5767025 C59.0070613,88.3748885 71.3642836,83.3388972 84.3318729,80.7348548 C80.4092975,91.3689001 79.0006191,102.766389 80.2160664,114.035471 C50.3687066,124.653897 30.6674546,153.183397 31.3099018,184.856778 C31.9523489,216.53016 52.7942769,244.237302 83.0476678,253.636674 C113.301059,263.036046 146.174554,252.017653 164.65246,226.284739 C178.605962,224.753189 192.191364,220.829455 204.812754,214.685648 C191.075002,258.852536 149.999038,288.783905 103.747182,288.330443 C57.4953265,287.87698 17.0141083,257.146007 4.14495666,212.71826 C-8.72419499,168.290513 9.06449061,120.680804 47.9132215,95.5767025 L47.9132215,95.5767025 Z M203.440819,195.603273 L202.941933,195.852715 L203.440819,195.603273 Z" fill="#24C8DB"></path>
    </g>
</svg>
